SVG/hand-o-right.svg

<?xml version="1.0" encoding="utf-8"?>
<!-- Generated by IcoMoon.io -->
<!DOCTYPE svg PUBLIC "-//W3C//DTD SVG 1.1//EN" "http://www.w3.org/Graphics/SVG/1.1/DTD/svg11.dtd">
<svg version="1.1" xmlns="http://www.w3.org/2000/svg" xmlns:xlink="http://www.w3.org/1999/xlink" width="14" height="14" viewBox="0 0 14 14">
<path fill="#444444" d="M2 10.5q0-0.203-0.148-0.352t-0.352-0.148-0.352 0.148-0.148 0.352 0.148 0.352 0.352 0.148 0.352-0.148 0.148-0.352zM13 6q0-0.398-0.305-0.699t-0.695-0.301h-4.5q0-0.156 0.117-0.379t0.258-0.43 0.258-0.531 0.117-0.66q0-0.523-0.348-0.762t-0.902-0.238q-0.187 0-0.703 1.086-0.187 0.344-0.289 0.508-0.312 0.5-0.875 1.133-0.555 0.633-0.789 0.828-0.539 0.445-1.094 0.445h-0.25v5h0.25q0.563 0 1.305 0.25t1.512 0.5 1.402 0.25q1.477 0 1.477-1.305 0-0.203-0.039-0.438 0.234-0.125 0.371-0.41t0.137-0.574-0.141-0.539q0.414-0.391 0.414-0.93 0-0.195-0.078-0.434t-0.195-0.371h2.586q0.406 0 0.703-0.297t0.297-0.703zM14 5.992q0 0.82-0.59 1.414t-1.41 0.594h-1.32q-0.031 0.484-0.289 0.93 0.023 0.164 0.023 0.336 0 0.789-0.469 1.391 0.008 1.086-0.664 1.715t-1.773 0.629q-1.039 0-2.516-0.539-1.281-0.461-1.742-0.461h-2.25q-0.414 0-0.707-0.293t-0.293-0.707v-5q0-0.414 0.293-0.707t0.707-0.293h2.25q0.078 0 0.168-0.035t0.184-0.109 0.176-0.141 0.187-0.176 0.16-0.168 0.148-0.168 0.109-0.133q0.508-0.578 0.781-1.008 0.102-0.164 0.258-0.484t0.289-0.563 0.316-0.492 0.43-0.387 0.543-0.137q0.977 0 1.613 0.523t0.637 1.477q0 0.531-0.172 1h2.922q0.813 0 1.406 0.594t0.594 1.398z"></path>
</svg>

<svg xmlns="http://www.w3.org/2000/svg" viewBox="0 0 14 14"><path d="M2 10.5q0-.203-.148-.352T1.5 10t-.352.148T1 10.5t.148.352T1.5 11t.352-.148T2 10.5zM13 6q0-.398-.305-.7T12 5H7.5q0-.156.117-.38t.258-.43.258-.53T8.25 3q0-.523-.348-.762T7 2q-.187 0-.703 1.086-.187.344-.29.508-.31.5-.874 1.133-.555.633-.79.828Q3.806 6 3.25 6H3v5h.25q.563 0 1.305.25t1.512.5T7.47 12q1.476 0 1.476-1.305 0-.203-.04-.438.235-.125.372-.41t.137-.574-.14-.54q.413-.39.413-.93 0-.194-.078-.433T9.415 7H12q.407 0 .704-.298T13 6zm1-.008q0 .82-.59 1.414T12 8h-1.32q-.03.484-.29.93.024.164.024.336 0 .79-.47 1.39.01 1.087-.663 1.716t-1.772.63q-1.04 0-2.516-.54-1.28-.46-1.742-.46H1q-.414 0-.707-.294T0 11V6q0-.413.293-.706T1 5h2.25q.078 0 .168-.034t.184-.11.176-.14.187-.176.16-.168.148-.168.11-.133q.507-.577.78-1.007.102-.164.258-.484t.29-.564.316-.492.43-.387T7 1q.976 0 1.612.523T9.25 3q0 .53-.173 1H12q.812 0 1.405.594T14 5.992z" /></svg>
